X: 1
T: Day They Spent Together, The
M: 4/4
L: 1/8
R: reel
K: Dmaj
|: B|f3F FB Bf | g2 e2 e3d |c3A Ac c3/2e/2 |g2 f2 f3F |
d3G Gd d3/2e/2 | d2 A2 A3F | G3E EB Bd |c4 e3 :|
|:a|a3g fe d3/2c/2| c2 B2 B3B | b3a gf ed | d2 c2 c3A |
a3g fe d2 |b3a ag g3/2e/2 | f3A Ad da | a3A Ac ce | a4 a3 :|
